svg/education/science_line.svg

<?xml version="1.0" encoding="UTF-8"?>
<svg width="24px" height="24px" viewBox="0 0 24 24" version="1.1" xmlns="http://www.w3.org/2000/svg" xmlns:xlink="http://www.w3.org/1999/xlink">
    <title>science_line</title>
    <g id="Icon" stroke="none" stroke-width="1" fill="none" fill-rule="evenodd">
        <g id="Education" transform="translate(-432.000000, 0.000000)">
            <g id="science_line" transform="translate(432.000000, 0.000000)">
                <path d="M24,0 L24,24 L0,24 L0,0 L24,0 Z M12.5935,23.2578 L12.5819,23.2595 L12.5109,23.295 L12.4919,23.2987 L12.4767,23.295 L12.4057,23.2595 C12.3958,23.2564 12.387,23.259 12.3821,23.2649 L12.378,23.2758 L12.3609,23.7031 L12.3659,23.7235 L12.3769,23.7357 L12.4805,23.8097 L12.4953,23.8136 L12.5071,23.8097 L12.6107,23.7357 L12.6233,23.7197 L12.6267,23.7031 L12.6096,23.2758 C12.6076,23.2657 12.601,23.2593 12.5935,23.2578 Z M12.8584,23.1453 L12.8445,23.1473 L12.6598,23.2397 L12.6499,23.2499 L12.6472,23.2611 L12.6651,23.6906 L12.6699,23.7034 L12.6784,23.7105 L12.8793,23.8032 C12.8914,23.8069 12.9022,23.803 12.9078,23.7952 L12.9118,23.7812 L12.8777,23.1665 C12.8753,23.1546 12.8674,23.147 12.8584,23.1453 Z M12.143,23.1473 C12.1332,23.1424 12.1222,23.1453 12.1156,23.1526 L12.1099,23.1665 L12.0758,23.7812 C12.0751,23.7927 12.0828,23.8019 12.0926,23.8046 L12.1083,23.8032 L12.3092,23.7105 L12.3186,23.7024 L12.3225,23.6906 L12.3404,23.2611 L12.3372,23.2485 L12.3278,23.2397 L12.143,23.1473 Z" id="MingCute" fill-rule="nonzero"></path>
                <path d="M9.65499,3.39994 C10.4109,3.63877 11.1976,3.98822 12.0002,4.44426 C12.8028,3.98826 13.5895,3.63883 14.3454,3.40001 C16.3887,2.75446 18.4255,2.86903 19.7783,4.22182 C21.1311,5.57462 21.2457,7.61152 20.6002,9.65481 C20.3613,10.4107 20.0119,11.1974 19.5559,12 C20.0119,12.8026 20.3613,13.5892 20.6002,14.3451 C21.2457,16.3884 21.1311,18.4253 19.7783,19.7781 C18.4255,21.1309 16.3887,21.2455 14.3454,20.5999 C13.5895,20.3611 12.8028,20.0117 12.0002,19.5557 C11.1976,20.0117 10.4109,20.3612 9.65499,20.6 C7.6117,21.2455 5.5748,21.131 4.222,19.7782 C2.8692,18.4254 2.75464,16.3885 3.40019,14.3452 C3.63901,13.5892 3.98846,12.8026 4.44449,12 C3.98846,11.1973 3.63901,10.4107 3.40019,9.65474 C2.75464,7.61145 2.8692,5.57455 4.222,4.22176 C5.5748,2.86896 7.6117,2.75439 9.65499,3.39994 Z M18.2896,13.9088 C17.6997,14.687 17.0162,15.4692 16.2428,16.2426 C15.4694,17.016 14.6873,17.6995 13.9091,18.2894 C14.2678,18.4533 14.6149,18.5876 14.9479,18.6928 C16.6458,19.2293 17.7643,18.9637 18.3641,18.3639 C18.964,17.7641 19.2295,16.6455 18.6931,14.9476 C18.5879,14.6146 18.4536,14.2675 18.2896,13.9088 Z M5.71074,13.9088 C5.54679,14.2676 5.41249,14.6147 5.30727,14.9477 C4.77084,16.6456 5.03639,17.7641 5.63621,18.364 C6.23604,18.9638 7.35455,19.2293 9.05247,18.6929 C9.3855,18.5877 9.73263,18.4534 10.0914,18.2894 C9.31315,17.6995 8.53098,17.016 7.75753,16.2426 C6.98411,15.4692 6.30069,14.687 5.71074,13.9088 Z M12.0002,6.80033 C11.0873,7.42137 10.1339,8.20938 9.17175,9.17157 C8.20958,10.1337 7.4216,11.0871 6.80056,12 C7.4216,12.9129 8.20958,13.8662 9.17175,14.8284 C10.1339,15.7905 11.0873,16.5786 12.0002,17.1996 C12.9131,16.5786 13.8664,15.7906 14.8286,14.8284 C15.7908,13.8662 16.5788,12.9129 17.1998,12 C16.5788,11.087 15.7908,10.1337 14.8286,9.1715 C13.8664,8.20935 12.9131,7.42136 12.0002,6.80033 Z M12.0001,10.5001 C12.8285,10.5001 13.5001,11.1717 13.5001,12.0001 C13.5001,12.8285 12.8285,13.5001 12.0001,13.5001 C11.1716,13.5001 10.5001,12.8285 10.5001,12.0001 C10.5001,11.1717 11.1716,10.5001 12.0001,10.5001 Z M5.63621,5.63597 C5.03639,6.23579 4.77084,7.35431 5.30727,9.05222 C5.41249,9.38526 5.54679,9.73238 5.71074,10.0911 C6.30069,9.31292 6.98411,8.53078 7.75753,7.75736 C8.53098,6.98391 9.31315,6.30047 10.0914,5.7105 C9.73263,5.54655 9.3855,5.41224 9.05247,5.30703 C7.35455,4.77059 6.23604,5.03615 5.63621,5.63597 Z M14.9479,5.30709 C14.6149,5.4123 14.2678,5.54659 13.9091,5.71052 C14.6873,6.30047 15.4694,6.98388 16.2428,7.75729 C17.0162,8.53072 17.6997,9.31289 18.2896,10.0911 C18.4536,9.73239 18.5879,9.3853 18.6931,9.05229 C19.2295,7.35438 18.964,6.23586 18.3641,5.63604 C17.7643,5.03621 16.6458,4.77066 14.9479,5.30709 Z" id="形状" fill="#09244B"></path>
            </g>
        </g>
    </g>
</svg>

<svg xmlns="http://www.w3.org/2000/svg" width="24" height="24"><g fill="none" fill-rule="evenodd"><path d="M24 0v24H0V0h24ZM12.594 23.258l-.012.002-.071.035-.02.004-.014-.004-.071-.036c-.01-.003-.019 0-.024.006l-.004.01-.017.428.005.02.01.013.104.074.015.004.012-.004.104-.074.012-.016.004-.017-.017-.427c-.002-.01-.009-.017-.016-.018Zm.264-.113-.014.002-.184.093-.01.01-.003.011.018.43.005.012.008.008.201.092c.012.004.023 0 .029-.008l.004-.014-.034-.614c-.003-.012-.01-.02-.02-.022Zm-.715.002a.023.023 0 0 0-.027.006l-.006.014-.034.614c0 .012.007.02.017.024l.015-.002.201-.093.01-.008.003-.011.018-.43-.003-.012-.01-.01-.184-.092Z"/><path fill="#09244B" d="M9.655 3.4A12.26 12.26 0 0 1 12 4.444 12.26 12.26 0 0 1 14.345 3.4c2.044-.646 4.08-.531 5.433.822 1.353 1.353 1.468 3.39.822 5.433A12.266 12.266 0 0 1 19.556 12c.456.803.805 1.59 1.044 2.345.646 2.043.531 4.08-.822 5.433-1.352 1.353-3.39 1.468-5.433.822A12.26 12.26 0 0 1 12 19.556 12.26 12.26 0 0 1 9.655 20.6c-2.043.645-4.08.531-5.433-.822-1.353-1.353-1.467-3.39-.822-5.433.239-.756.588-1.542 1.044-2.345A12.26 12.26 0 0 1 3.4 9.655c-.645-2.044-.53-4.08.822-5.433 1.353-1.353 3.39-1.468 5.433-.822Zm8.635 10.509c-.59.778-1.274 1.56-2.047 2.334a22.768 22.768 0 0 1-2.334 2.046c.359.164.706.299 1.039.404 1.698.536 2.816.27 3.416-.33.6-.599.866-1.718.33-3.415a9.097 9.097 0 0 0-.404-1.04Zm-12.58 0a9.118 9.118 0 0 0-.403 1.039c-.536 1.698-.27 2.816.33 3.416.599.6 1.718.865 3.415.329.334-.105.68-.24 1.04-.404a22.769 22.769 0 0 1-2.334-2.046 22.772 22.772 0 0 1-2.047-2.334ZM12 6.8a19.75 19.75 0 0 0-2.828 2.372A19.75 19.75 0 0 0 6.8 12a19.754 19.754 0 0 0 2.37 2.828c.963.963 1.916 1.75 2.83 2.372a19.75 19.75 0 0 0 2.828-2.372A19.75 19.75 0 0 0 17.199 12a19.744 19.744 0 0 0-2.37-2.828A19.754 19.754 0 0 0 12 6.8Zm0 3.7a1.5 1.5 0 1 1 0 3 1.5 1.5 0 0 1 0-3ZM5.636 5.636c-.6.6-.865 1.718-.329 3.416.105.333.24.68.404 1.04.59-.78 1.273-1.561 2.047-2.335a22.772 22.772 0 0 1 2.333-2.046 9.113 9.113 0 0 0-1.039-.404c-1.697-.536-2.816-.27-3.416.329Zm9.312-.329c-.333.105-.68.24-1.039.404.778.59 1.56 1.273 2.334 2.046a22.77 22.77 0 0 1 2.047 2.334c.164-.359.298-.706.403-1.039.537-1.698.271-2.816-.329-3.416-.6-.6-1.718-.865-3.416-.329Z"/></g></svg>
